X: 29503
T: Nina's
R: jig
M: 6/8
K: Eminor
|:EGA B2A|AGB AGD|EGA B2A|ABd ~e3|
EGA B2A|AGB ~A3|AGB AGB|AGD ~E3:|
|:e3 dBA|AGB AGD|~e3 dBA|ABd ~e3|
edg deg|edB AGB|AGB AGB|AGD ~E3:|

